X: 109
T: Pana ja zawżdy między cnotliwymi
C: Mikołaj Gomółka
%%abc-version 2.0
%%abcx-abcm2ps-target-version 5.9.1 (29 Sep 2008)
%%abc-creator hum2abc beta
%%abcx-conversion-date 2021/10/04 07:59:09
%%abc-edited-by Marta Lawrence
%%abcx-initial-encoding-date 2020-02-18
%%humdrum-veritas 2835799824
%%humdrum-veritas-data 4052607607
%%linebreak <none>
%%barnumbers 0
L: 1/4
M: C|
N: Derived from pl-wn--sd-xvi-qu-273--111_gomolka-mikolaj--pana-ja-zawzdy-miedzy-cnotliwymi.krn
%%staves [1 2 3 4]
V: 1
V: 2 clef=alto
V: 3 clef=alto
V: 4 clef=bass
K: F
[V:1] c4c2A2 [|] 
[V:2] A4G2F2 [|] 
[V:3] F4E2F2 [|] 
[V:4] F,4C,2D,2 [|] 
[V:1] B4A2A2 [|] 
[V:2] F2F,G,A,G,A,B, [|] 
[V:3] D4C2F2 [|] 
[V:4] B,,C,D,E,F,2D,2 [|] 
[V:1] c2A2B2B2 [|] 
[V:2] C2D2D3E [|] 
[V:3] E2FEDCD2 [|] 
[V:4] A,,2D,C,B,,A,,B,,2 [|] 
[V:1] A2>G2F3E [|] 
[V:2] F2C2C2DE [|] 
[V:3] C2>B,2A,2A,2 [|] 
[V:4] F,,2F,2>E,2D,C, [|] 
[V:1] D2F2B2AG [|] 
[V:2] FE2<D2CDE [|] 
[V:3] D2>C2B,2B,2 [|] 
[V:4] B,,2>A,,2G,,2G,,2 [|] 
[V:1] A2A2G2F4 [|] 
[V:2] F2>E2D2D2 [|] 
[V:3] C2C2B,3A, [|] 
[V:4] F,,2F,2B,,2B,,2 [|] 
[V:1] E2F4 [|] 
[V:2] C2>B,2A,4 [|] 
[V:3] G,F,G,2F,4 [|] 
[V:4] C,4F,,4 [|] 
[V:1] z2A2A2GF [|] 
[V:2] z2C2D2D2 [|] 
[V:3] z2F,2A,2B,2 [|] 
[V:4] z2F,2D,2D,2 [|] 
[V:1] E2c4B2 [|] 
[V:2] E2A2A2GF [|] 
[V:3] C2C2D4 [|] 
[V:4] C,2F,4G,2 [|] 
[V:1] A2A4G2 [|] 
[V:2] E2D4G2 [|] 
[V:3] C2F4E2 [|] 
[V:4] A,2D,4E,2 [|] 
[V:1] A2B2c2FG [|] 
[V:2] F2EDE2D2 [|] 
[V:3] D4C2B,2 [|] 
[V:4] F,2G,2C,2D,E, [|] 
[V:1] AGABc2F3 [|] 
[V:2] C2F2G2AG [|] 
[V:3] A,2D2C3B, [|] 
[V:4] F,2D,2E,2F,3 [|] 
[V:1] GA2A2dc [|] 
[V:2] F2>E2DEF4 [|] 
[V:3] A,G,F,2DCB,A, [|] 
[V:4] E,D,C,B,,4 [|] 
[V:1] BAG2A32 |]  
[V:2] E2F32 |]  
[V:3] G,F,G,2F,32 |]  
[V:4] C,4F,,32 |]  


